X:2491
T:Polska från Västermandland
T:Svenska Folkdansar H3 nr 3
O:Västermandland
B:Traditioner av Svenska Folkdansar Häfte 3, nr 3
R:Polska
Z:Nils L
M:3/4
U:w=wedge
L:1/8
K:Dm
ab/a/ ga/g/ fe | fg/f/ ef/e/ d^c | d>^c de fg | (a/g/f/e/) wfwc wAwF |
ab/a/ ga/g/ fe | fg/f/ ef/e/ d^c | (d>^c) de fg | Tgf/g/ a2 f2 ::
a2 ag/a/ ba | g2 gf/g/ ag | fe/f/ gf ed | Pd^c/d/ ec A2 |
a2 ag/a/ ba | g2 gf/g/ ag | (f>e) df ed | (f/e/d/^c/) d2 D2 :|
(:musicend:)
(:music:)
